X: 25544
T: Marig Ar Polanton
R: barndance
M: 4/4
K: Gminor
D|:F4-FD CB,/D/-|D B,-B,3 F GF/B/-|B6 G>G|F6- FD:|
E4-ED EF/G/-|GF-F3 D CB,/D/-|D6 F2|C6- CD|
E4-ED EF/G/-|GF-F3 D CB,/D/-|D6 C2|B,6-B,D|
E4-ED EF/G/-|GF-F3 D CB,/D/-|D6 F2|C6- CD|
E4-ED EF/B/-|BG/F/- F3 D CB,/D/-|D6 C2|B,6-B, D|
E-EF/E/ DE- EF|GF-FD3 D DB,/D/-|D4-D zz C|B,12||

